plasma/desktoptheme/ROUNDED/icons/quota.svg

<svg xmlns="http://www.w3.org/2000/svg" id="svg32" width="32" height="32" version="1.1">
 <g id="22-22-quota-critical" transform="translate(96,-22)">
  <rect id="rect889" style="opacity:0.001" width="22" height="22" x="0" y="0"/>
  <path id="rect964" style="opacity:1;fill:#da4453" d="M 5,4 C 3.892,4 3,4.892 3,6 v 1 3 5 c 0,1.662 1.338,3 3,3 h 10 c 1.662,0 3,-1.338 3,-3 V 12 10 8 C 19,6.338 17.662,5 16,5 H 11.724609 C 11.379048,4.4042011 10.74107,4 10,4 Z M 4,8 h 8 4 c 1.125297,0 2,0.8747028 2,2 v 2 3 c 0,1.125297 -0.874703,2 -2,2 H 6 C 4.8747028,17 4,16.125297 4,15 v -5 z m 7,1 c -0.554,0 -1,0.446 -1,1 v 2 c 0,0.554 0.446,1 1,1 0.554,0 1,-0.446 1,-1 V 10 C 12,9.446 11.554,9 11,9 Z m 0,5 a 1,1 0 0 0 -1,1 1,1 0 0 0 1,1 1,1 0 0 0 1,-1 1,1 0 0 0 -1,-1 z"/>
 </g>
 <g id="22-22-quota" transform="translate(0,-22)">
  <rect id="rect910" style="opacity:0.001" width="22" height="22" x="0" y="0"/>
  <path id="path912" style="opacity:1;fill:#232627" d="M 5,4 C 3.892,4 3,4.892 3,6 v 1 3 5 c 0,1.662 1.338,3 3,3 h 10 c 1.662,0 3,-1.338 3,-3 V 12 10 8 C 19,6.338 17.662,5 16,5 H 11.724609 C 11.379048,4.4042011 10.74107,4 10,4 Z M 4,8 h 8 4 c 1.125297,0 2,0.8747028 2,2 v 2 3 c 0,1.125297 -0.874703,2 -2,2 H 6 C 4.8747028,17 4,16.125297 4,15 v -5 z m 4.5,2 c -0.6761613,-0.00956 -0.6761613,1.009563 0,1 h 5 c 0.676161,0.0096 0.676161,-1.0095626 0,-1 z m 0,2 c -0.6761613,-0.0096 -0.6761613,1.009563 0,1 h 5 c 0.676161,0.0096 0.676161,-1.009563 0,-1 z m 0,2 c -0.6761613,-0.0096 -0.6761613,1.009563 0,1 h 5 c 0.676161,0.0096 0.676161,-1.009563 0,-1 z"/>
 </g>
 <g id="22-22-quota-low" transform="translate(32.000001,-22)">
  <rect id="rect922" style="opacity:0.001" width="22" height="22" x="0" y="0"/>
  <path id="path924" style="opacity:1;fill:#232627" d="M 5,4 C 3.892,4 3,4.892 3,6 v 1 3 5 c 0,1.662 1.338,3 3,3 h 10 c 1.662,0 3,-1.338 3,-3 V 12 10 8 C 19,6.338 17.662,5 16,5 H 11.724609 C 11.379048,4.4042011 10.74107,4 10,4 Z M 4,8 h 8 4 c 1.125297,0 2,0.8747028 2,2 v 2 3 c 0,1.125297 -0.874703,2 -2,2 H 6 C 4.8747028,17 4,16.125297 4,15 v -5 z"/>
  <path id="path926" style="opacity:1;fill:#f67400" transform="translate(-22)" d="m 30.5,12 c -0.676161,-0.0096 -0.676161,1.009563 0,1 h 5 c 0.676161,0.0096 0.676161,-1.009563 0,-1 z m 0,2 c -0.676161,-0.0096 -0.676161,1.009563 0,1 h 5 c 0.676161,0.0096 0.676161,-1.009563 0,-1 z"/>
  <path id="path930" style="opacity:0.5;fill:#232627" d="m 8.5,10 c -0.6761613,-0.00956 -0.6761613,1.009563 0,1 h 5 c 0.676161,0.0096 0.676161,-1.0095626 0,-1 z"/>
 </g>
 <g id="22-22-quota-high" transform="translate(64.000001,-22)">
  <rect id="rect936" style="opacity:0.001" width="22" height="22" x="0" y="0"/>
  <path id="path938" style="opacity:1;fill:#232627" d="M 5,4 C 3.892,4 3,4.892 3,6 v 1 3 5 c 0,1.662 1.338,3 3,3 h 10 c 1.662,0 3,-1.338 3,-3 V 12 10 8 C 19,6.338 17.662,5 16,5 H 11.724609 C 11.379048,4.4042011 10.74107,4 10,4 Z M 4,8 h 8 4 c 1.125297,0 2,0.8747028 2,2 v 2 3 c 0,1.125297 -0.874703,2 -2,2 H 6 C 4.8747028,17 4,16.125297 4,15 v -5 z"/>
  <path id="path940" style="opacity:1;fill:#da4453" d="m 8.5,14 c -0.6761613,-0.0096 -0.6761613,1.009563 0,1 h 5 c 0.676161,0.0096 0.676161,-1.009563 0,-1 z"/>
  <path id="path942" style="opacity:0.5;fill:#232627" transform="translate(-44)" d="m 52.5,10 c -0.676161,-0.00956 -0.676161,1.009563 0,1 h 5 c 0.676161,0.0096 0.676161,-1.0095626 0,-1 z m 0,2 c -0.676161,-0.0096 -0.676161,1.009563 0,1 h 5 c 0.676161,0.0096 0.676161,-1.009563 0,-1 z"/>
 </g>
 <g id="22-22-quota-missing" transform="translate(128,-22)">
  <rect id="rect1521" style="opacity:0.001" width="22" height="22" x="0" y="0"/>
  <path id="path1523" style="opacity:0.5;fill:#232627" transform="translate(-88)" d="m 93,4 c -1.108,0 -2,0.892 -2,2 v 1 3 5 c 0,1.662 1.338,3 3,3 h 10 c 1.662,0 3,-1.338 3,-3 V 12 10 8 c 0,-1.662 -1.338,-3 -3,-3 H 99.724609 C 99.379048,4.4042011 98.74107,4 98,4 Z m -1,4 h 8 4 c 1.1253,0 2,0.8747028 2,2 v 2 3 c 0,1.125297 -0.8747,2 -2,2 H 94 c -1.125297,0 -2,-0.874703 -2,-2 v -5 z m 4.5,2 c -0.676161,-0.00956 -0.676161,1.009563 0,1 h 5 c 0.67616,0.0096 0.67616,-1.0095626 0,-1 z m 0,2 c -0.676161,-0.0096 -0.676161,1.009563 0,1 h 5 c 0.67616,0.0096 0.67616,-1.009563 0,-1 z m 0,2 c -0.676161,-0.0096 -0.676161,1.009563 0,1 h 5 c 0.67616,0.0096 0.67616,-1.009563 0,-1 z"/>
 </g>
 <g id="quota-critical" transform="translate(96)">
  <rect id="rect868" style="opacity:0.001" width="32" height="32" x="0" y="0"/>
  <path id="path908" style="opacity:1;fill:#da4453" d="M 7,5 C 5.3379999,5 4,6.338 4,8 V 9.5 14 21.5 C 4,23.993001 6.007,26 8.5,26 h 15 C 25.993,26 28,23.993001 28,21.5 V 17 14 11 C 28,8.5069999 25.993,7 23.5,7 H 17.085938 C 16.567597,6.1063016 16,5 14,5 Z M 5,11 H 17.5 24 c 1.687946,0 3.056234,1.312991 3,3 v 3 4.5 C 27,23.187946 25.187946,25 23.5,25 H 8.5 C 6.8120541,25 5,23.187946 5,21.5 V 14 Z m 11,2 c -0.554,0 -1,0.446 -1,1 v 4 c 0,0.554 0.446,1 1,1 0.554,0 1,-0.446 1,-1 v -4 c 0,-0.554 -0.446,-1 -1,-1 z m 0,8 a 1,1 0 0 0 -1,1 1,1 0 0 0 1,1 1,1 0 0 0 1,-1 1,1 0 0 0 -1,-1 z"/>
 </g>
 <g id="quota">
  <rect id="rect830" style="opacity:0.001" width="32" height="32" x="0" y="0"/>
  <path id="path832" style="opacity:1;fill:#232627" d="M 7,5 C 5.3379999,5 4,6.338 4,8 V 9.5 14 21.5 C 4,23.993001 6.007,26 8.5,26 h 15 C 25.993,26 28,23.993001 28,21.5 V 17 14 11 C 28,8.5069999 25.993,7 23.5,7 H 17.085938 C 16.567597,6.1063016 16,5 14,5 Z M 5,11 H 17.5 24 c 1.687946,0 3.056234,1.312991 3,3 v 3 4.5 C 27,23.187946 25.187946,25 23.5,25 H 8.5 C 6.8120541,25 5,23.187946 5,21.5 V 14 Z m 6.5,3 c -0.277,0 -0.5,0.223 -0.5,0.5 0,0.277 0.223,0.5 0.5,0.5 h 9 C 20.777,15 21,14.777 21,14.5 21,14.223 20.777,14 20.5,14 Z m 0,3 c -0.277,0 -0.5,0.223 -0.5,0.5 0,0.277 0.223,0.5 0.5,0.5 h 9 C 20.777,18 21,17.777 21,17.5 21,17.223 20.777,17 20.5,17 Z m 0,3 c -0.277,0 -0.5,0.223 -0.5,0.5 0,0.277 0.223,0.5 0.5,0.5 h 9 C 20.777,21 21,20.777 21,20.5 21,20.223 20.777,20 20.5,20 Z"/>
 </g>
 <g id="quota-low" transform="translate(32.000001)">
  <rect id="rect852" style="opacity:0.001" width="32" height="32" x="0" y="0"/>
  <path id="path854" style="opacity:1;fill:#232627" d="m 7.0000004,4.9999998 c -1.6620001,0 -3.0000001,1.3380001 -3.0000001,3.0000001 V 9.5 14 21.499999 C 4.0000003,23.993 6.0070004,26 8.5000004,26 H 23.500001 C 25.993001,26 28,23.993 28,21.499999 V 17 14 11 C 28,8.5069999 25.993001,7 23.500001,7 H 17.086914 C 16.568573,6.1063016 16,4.9999998 14,4.9999998 Z M 5,11 H 17.500001 24 c 1.687946,0 3.056234,1.312991 3,3 v 3 4.499999 C 27,23.187945 25.187947,25 23.500001,25 H 8.5000004 C 6.8120545,25 5,23.187945 5,21.499999 V 14 Z"/>
  <path id="path923" style="opacity:0.5;fill:#232627" d="m 11.5,14 c -0.277,0 -0.5,0.223 -0.5,0.5 0,0.277 0.223,0.5 0.5,0.5 h 9 C 20.777,15 21,14.777 21,14.5 21,14.223 20.777,14 20.5,14 Z"/>
  <path id="path921" style="opacity:1;fill:#f67400" transform="translate(-32)" d="m 43.5,17 c -0.277,0 -0.5,0.223 -0.5,0.5 0,0.277 0.223,0.5 0.5,0.5 h 9 C 52.777,18 53,17.777 53,17.5 53,17.223 52.777,17 52.5,17 Z m 0,3 c -0.277,0 -0.5,0.223 -0.5,0.5 0,0.277 0.223,0.5 0.5,0.5 h 9 C 52.777,21 53,20.777 53,20.5 53,20.223 52.777,20 52.5,20 Z"/>
 </g>
 <g id="quota-high" transform="translate(64)">
  <rect id="rect860" style="opacity:0.001" width="32" height="32" x="0" y="0"/>
  <path id="path862" style="opacity:1;fill:#232627" d="m 7.0000004,4.9999998 c -1.6620001,0 -3.0000001,1.3380001 -3.0000001,3.0000001 V 9.5 14 21.499999 C 4.0000003,23.993 6.0070004,26 8.5000004,26 H 23.500001 C 25.993001,26 28,23.993 28,21.499999 V 17 14 11 C 28,8.5069999 25.993001,7 23.500001,7 H 17.086914 C 16.568573,6.1063016 16,4.9999998 14,4.9999998 Z M 5,11 H 17.500001 24 c 1.687946,0 3.056234,1.312991 3,3 v 3 4.499999 C 27,23.187945 25.187947,25 23.500001,25 H 8.5000004 C 6.8120545,25 5,23.187945 5,21.499999 V 14 Z"/>
  <path id="path931" style="opacity:0.5;fill:#232627" transform="translate(-64)" d="m 75.5,14 c -0.277,0 -0.5,0.223 -0.5,0.5 0,0.277 0.223,0.5 0.5,0.5 h 9 C 84.777,15 85,14.777 85,14.5 85,14.223 84.777,14 84.5,14 Z m 0,3 c -0.277,0 -0.5,0.223 -0.5,0.5 0,0.277 0.223,0.5 0.5,0.5 h 9 C 84.777,18 85,17.777 85,17.5 85,17.223 84.777,17 84.5,17 Z"/>
  <path id="path864" style="opacity:1;fill:#da4453" d="m 11.5,20 c -0.277,0 -0.5,0.223 -0.5,0.5 0,0.277 0.223,0.5 0.5,0.5 h 9 C 20.777,21 21,20.777 21,20.5 21,20.223 20.777,20 20.5,20 Z"/>
 </g>
 <g id="quota-missing" transform="translate(128)">
  <rect id="rect869" style="opacity:0.001" width="32" height="32" x="0" y="0"/>
  <path id="path871" style="opacity:0.5;fill:#232627" d="M 7,5 C 5.3379999,5 4,6.338 4,8 V 9.5 14 21.5 C 4,23.993001 6.007,26 8.5,26 h 15 C 25.993,26 28,23.993001 28,21.5 V 17 14 11 C 28,8.5069999 25.993,7 23.5,7 H 17.085938 C 16.567597,6.1063016 16,5 14,5 Z M 5,11 H 17.5 24 c 1.687946,0 3.056234,1.312991 3,3 v 3 4.5 C 27,23.187946 25.187946,25 23.5,25 H 8.5 C 6.8120541,25 5,23.187946 5,21.5 V 14 Z m 6.5,3 c -0.277,0 -0.5,0.223 -0.5,0.5 0,0.277 0.223,0.5 0.5,0.5 h 9 C 20.777,15 21,14.777 21,14.5 21,14.223 20.777,14 20.5,14 Z m 0,3 c -0.277,0 -0.5,0.223 -0.5,0.5 0,0.277 0.223,0.5 0.5,0.5 h 9 C 20.777,18 21,17.777 21,17.5 21,17.223 20.777,17 20.5,17 Z m 0,3 c -0.277,0 -0.5,0.223 -0.5,0.5 0,0.277 0.223,0.5 0.5,0.5 h 9 C 20.777,21 21,20.777 21,20.5 21,20.223 20.777,20 20.5,20 Z"/>
 </g>
</svg>

<svg xmlns="http://www.w3.org/2000/svg" id="svg32" version="1.1" viewBox="0 0 22 22">
 <g id="quota-critical" transform="translate(66)">
  <rect id="rect889" style="opacity:0.001" width="22" height="22" x="0" y="0"/>
  <path id="rect964" style="opacity:1;fill:#da4453" d="M 5,4 C 3.892,4 3,4.892 3,6 v 1 3 5 c 0,1.662 1.338,3 3,3 h 10 c 1.662,0 3,-1.338 3,-3 V 12 10 8 C 19,6.338 17.662,5 16,5 H 11.724609 C 11.379048,4.4042011 10.74107,4 10,4 Z M 4,8 h 8 4 c 1.125297,0 2,0.8747028 2,2 v 2 3 c 0,1.125297 -0.874703,2 -2,2 H 6 C 4.8747028,17 4,16.125297 4,15 v -5 z m 7,1 c -0.554,0 -1,0.446 -1,1 v 2 c 0,0.554 0.446,1 1,1 0.554,0 1,-0.446 1,-1 V 10 C 12,9.446 11.554,9 11,9 Z m 0,5 a 1,1 0 0 0 -1,1 1,1 0 0 0 1,1 1,1 0 0 0 1,-1 1,1 0 0 0 -1,-1 z"/>
 </g>
 <g id="quota">
  <rect id="rect910" style="opacity:0.001" width="22" height="22" x="0" y="0"/>
  <path id="path912" style="opacity:1;fill:#232627" d="M 5 4 C 3.892 4 3 4.892 3 6 L 3 7 L 3 10 L 3 15 C 3 16.662 4.338 18 6 18 L 16 18 C 17.662 18 19 16.662 19 15 L 19 12 L 19 10 L 19 8 C 19 6.338 17.662 5 16 5 L 11.724609 5 C 11.379048 4.4042011 10.74107 4 10 4 L 5 4 z M 4 8 L 12 8 L 16 8 C 17.125297 8 18 8.8747028 18 10 L 18 12 L 18 15 C 18 16.125297 17.125297 17 16 17 L 6 17 C 4.8747028 17 4 16.125297 4 15 L 4 10 L 4 8 z M 8.5 10 C 7.8238387 9.99044 7.8238387 11.009563 8.5 11 L 13.5 11 C 14.176161 11.0096 14.176161 9.9904374 13.5 10 L 8.5 10 z M 8.5 12 C 7.8238387 11.9904 7.8238387 13.009563 8.5 13 L 13.5 13 C 14.176161 13.0096 14.176161 11.990437 13.5 12 L 8.5 12 z M 8.5 14 C 7.8238387 13.9904 7.8238387 15.009563 8.5 15 L 13.5 15 C 14.176161 15.0096 14.176161 13.990437 13.5 14 L 8.5 14 z"/>
 </g>
 <g id="quota-low" transform="translate(22)">
  <rect id="rect922" style="opacity:0.001" width="22" height="22" x="0" y="0"/>
  <path id="path924" style="opacity:1;fill:#232627" d="M 5,4 C 3.892,4 3,4.892 3,6 v 1 3 5 c 0,1.662 1.338,3 3,3 h 10 c 1.662,0 3,-1.338 3,-3 V 12 10 8 C 19,6.338 17.662,5 16,5 H 11.724609 C 11.379048,4.4042011 10.74107,4 10,4 Z M 4,8 h 8 4 c 1.125297,0 2,0.8747028 2,2 v 2 3 c 0,1.125297 -0.874703,2 -2,2 H 6 C 4.8747028,17 4,16.125297 4,15 v -5 z"/>
  <path id="path926" style="opacity:1;fill:#f67400" transform="translate(-22)" d="M 30.5 12 C 29.823839 11.9904 29.823839 13.009563 30.5 13 L 35.5 13 C 36.176161 13.0096 36.176161 11.990437 35.5 12 L 30.5 12 z M 30.5 14 C 29.823839 13.9904 29.823839 15.009563 30.5 15 L 35.5 15 C 36.176161 15.0096 36.176161 13.990437 35.5 14 L 30.5 14 z"/>
  <path id="path930" style="opacity:0.5;fill:#232627" d="m 8.5,10 c -0.6761613,-0.00956 -0.6761613,1.009563 0,1 h 5 c 0.676161,0.0096 0.676161,-1.0095626 0,-1 z"/>
 </g>
 <g id="quota-high" transform="translate(44)">
  <rect id="rect936" style="opacity:0.001" width="22" height="22" x="0" y="0"/>
  <path id="path938" style="opacity:1;fill:#232627" d="M 5,4 C 3.892,4 3,4.892 3,6 v 1 3 5 c 0,1.662 1.338,3 3,3 h 10 c 1.662,0 3,-1.338 3,-3 V 12 10 8 C 19,6.338 17.662,5 16,5 H 11.724609 C 11.379048,4.4042011 10.74107,4 10,4 Z M 4,8 h 8 4 c 1.125297,0 2,0.8747028 2,2 v 2 3 c 0,1.125297 -0.874703,2 -2,2 H 6 C 4.8747028,17 4,16.125297 4,15 v -5 z"/>
  <path id="path940" style="opacity:1;fill:#da4453" d="m 8.5,14 c -0.6761613,-0.0096 -0.6761613,1.009563 0,1 h 5 c 0.676161,0.0096 0.676161,-1.009563 0,-1 z"/>
  <path id="path942" style="opacity:0.5;fill:#232627" transform="translate(-44)" d="M 52.5 10 C 51.823839 9.99044 51.823839 11.009563 52.5 11 L 57.5 11 C 58.176161 11.0096 58.176161 9.9904374 57.5 10 L 52.5 10 z M 52.5 12 C 51.823839 11.9904 51.823839 13.009563 52.5 13 L 57.5 13 C 58.176161 13.0096 58.176161 11.990437 57.5 12 L 52.5 12 z"/>
 </g>
 <g id="quota-missing" transform="translate(88)">
  <rect id="rect1521" style="opacity:0.001" width="22" height="22" x="0" y="0"/>
  <path id="path1523" style="opacity:0.5;fill:#232627" transform="translate(-88)" d="M 93 4 C 91.892 4 91 4.892 91 6 L 91 7 L 91 10 L 91 15 C 91 16.662 92.338 18 94 18 L 104 18 C 105.662 18 107 16.662 107 15 L 107 12 L 107 10 L 107 8 C 107 6.338 105.662 5 104 5 L 99.724609 5 C 99.379048 4.4042011 98.74107 4 98 4 L 93 4 z M 92 8 L 100 8 L 104 8 C 105.1253 8 106 8.8747028 106 10 L 106 12 L 106 15 C 106 16.125297 105.1253 17 104 17 L 94 17 C 92.874703 17 92 16.125297 92 15 L 92 10 L 92 8 z M 96.5 10 C 95.823839 9.99044 95.823839 11.009563 96.5 11 L 101.5 11 C 102.17616 11.0096 102.17616 9.9904374 101.5 10 L 96.5 10 z M 96.5 12 C 95.823839 11.9904 95.823839 13.009563 96.5 13 L 101.5 13 C 102.17616 13.0096 102.17616 11.990437 101.5 12 L 96.5 12 z M 96.5 14 C 95.823839 13.9904 95.823839 15.009563 96.5 15 L 101.5 15 C 102.17616 15.0096 102.17616 13.990437 101.5 14 L 96.5 14 z"/>
 </g>
</svg>
